X:1
T:When Sherman Marched Down to the Sea
M:3/4
L:1/4
K:Eb
 z2 B,| E G E| F G A| c3| B2 B,| E G E| F A G| E3-| E z B,/2B,/2| E G E|\
 F G A| c3| B2 B,| E G E| F A G| E3-| E z G/2A/2| B G B| e d c| c3|\
 c2 B,| E G E| F A G| E3-| E z G| G A G| F G A| c3| B2 B,| E G E| F A G|\
 E3-| E z2|
